icon/ir/media-video-list.svg

<svg stroke-width="1.5" viewBox="0 0 24 24" fill="none" xmlns="http://www.w3.org/2000/svg" height="1em" width="1em">
  <path d="M21 7.6V20.4C21 20.7314 20.7314 21 20.4 21H7.6C7.26863 21 7 20.7314 7 20.4V7.6C7 7.26863 7.26863 7 7.6 7H20.4C20.7314 7 21 7.26863 21 7.6Z" stroke="currentColor" stroke-linecap="round" stroke-linejoin="round"/>
  <path d="M18 4H4.6C4.26863 4 4 4.26863 4 4.6V18" stroke="currentColor" stroke-linecap="round" stroke-linejoin="round"/>
  <path d="M12.9087 11.5452C12.5088 11.3053 12 11.5933 12 12.0597V15.9403C12 16.4067 12.5088 16.6947 12.9087 16.4548L16.1425 14.5145C16.5309 14.2815 16.5309 13.7185 16.1425 13.4855L12.9087 11.5452Z" stroke="currentColor" stroke-linecap="round" stroke-linejoin="round"/>
</svg>

<svg width="24" height="24" stroke-width="1.5" fill="none" xmlns="http://www.w3.org/2000/svg"><path d="M21 7.6v12.8a.6.6 0 0 1-.6.6H7.6a.6.6 0 0 1-.6-.6V7.6a.6.6 0 0 1 .6-.6h12.8a.6.6 0 0 1 .6.6Z" stroke="currentColor" stroke-linecap="round" stroke-linejoin="round"/><path d="M18 4H4.6a.6.6 0 0 0-.6.6V18M12.909 11.545a.6.6 0 0 0-.909.515v3.88a.6.6 0 0 0 .909.515l3.233-1.94a.6.6 0 0 0 0-1.03l-3.233-1.94Z" stroke="currentColor" stroke-linecap="round" stroke-linejoin="round"/></svg>
